dist/images/grace/advantages4.svg

<svg width="126" height="126" viewBox="0 0 126 126" fill="none" xmlns="http://www.w3.org/2000/svg">
<circle cx="63" cy="63" r="61.5" stroke="#E2704C" stroke-width="3"/>
<path d="M85.1913 68.1623C80.5175 65.6633 74.3629 64.2871 67.8613 64.2871C61.3652 64.2871 55.23 65.6643 50.5863 68.1648C45.5922 70.8539 42.8418 74.5542 42.8418 78.584C42.8418 78.6573 42.8428 78.7305 42.8443 78.7992C37.6214 79.4579 32 81.9085 32 85.7324C32 87.9234 33.7035 89.8727 36.7965 91.2212C39.4275 92.3683 42.8437 93 46.416 93C47.0671 93 47.7218 92.9796 48.3618 92.9392C54.0874 92.5788 59.6753 92.5682 64.9701 92.9079C65.9233 92.969 66.8959 93 67.8613 93C74.3528 93 80.5105 91.6009 85.1999 89.0606C90.2299 86.3359 93 82.6152 93 78.584C93 74.5557 90.2269 70.8546 85.1913 68.1623ZM83.4975 85.9179C79.3216 88.18 73.7687 89.4258 67.8613 89.4258C66.9719 89.4258 66.0762 89.3972 65.1989 89.3411C59.7535 88.9919 54.0131 89.0022 48.1372 89.3722C47.5717 89.4077 46.9927 89.4258 46.416 89.4258C39.7963 89.4258 35.5742 87.0006 35.5742 85.7324C35.5742 85.1505 37.896 83.0258 43.2916 82.3454C45.1198 82.1147 46.4637 80.5528 46.4176 78.7096C46.4164 78.6677 46.4159 78.6259 46.4159 78.584C46.4159 72.7717 56.2367 67.8613 67.8612 67.8613C73.7855 67.8613 79.3414 69.0875 83.5059 71.3143C87.2681 73.3257 89.4258 75.9754 89.4258 78.584C89.4258 81.2039 87.2649 83.877 83.4975 85.9179Z" fill="#373737"/>
<path d="M92.4765 43.3652L88.9023 39.791C88.225 39.1134 87.0932 39.0804 86.382 39.7841L76.576 49.4822L74.8788 48.3507C74.9654 47.7111 75.0098 47.064 75.0098 46.4159C75.0098 38.467 68.5962 32 60.7129 32C53.8692 32 48.2941 36.8578 46.8135 43.0406L41.971 39.5981C41.3206 39.1357 40.4423 39.1605 39.8191 39.6591L32.6706 45.3778C32.2467 45.717 32 46.2305 32 46.7734V58.9258C32 59.3299 32.1357 59.7014 32.3618 60.0007C32.1331 60.9295 32 61.813 32 62.5C32 64.8298 33.4941 66.8162 35.5742 67.5539V73.2227C35.5742 74.2096 36.3744 75.0098 37.3613 75.0098C38.3483 75.0098 39.1484 74.2096 39.1484 73.2227V67.5539C41.2285 66.8162 42.7227 64.8298 42.7227 62.5C42.7227 61.9916 42.6495 61.3752 42.5192 60.7129C42.5946 60.7129 82.5068 60.7129 82.5847 60.7129C83.1241 62.2336 84.3309 63.4404 85.8516 63.9797V66.0742C85.8516 67.0612 86.6517 67.8613 87.6387 67.8613C88.6256 67.8613 89.4258 67.0612 89.4258 66.0742V63.9797C91.5059 63.242 93 61.2556 93 58.9258V44.6289C93 44.155 92.8118 43.7004 92.4765 43.3652ZM60.7129 35.5742C66.5044 35.5742 71.2375 40.2411 71.4288 46.0507L67.0655 43.1419C66.4651 42.7417 65.683 42.7417 65.0828 43.1419L55.7284 49.3782L50.0441 45.3372C50.5875 39.8803 55.2047 35.5742 60.7129 35.5742ZM37.3613 64.2871C36.3759 64.2871 35.5742 63.4854 35.5742 62.5C35.5742 61.2282 36.4403 58.4117 37.3613 57.3123C38.2917 58.4227 39.1484 61.2543 39.1484 62.5C39.1484 63.4854 38.3467 64.2871 37.3613 64.2871ZM41.3811 57.1387C40.3101 54.7671 38.9589 53.5645 37.3613 53.5645C36.726 53.5645 36.1295 53.755 35.5742 54.1331V47.6323L40.999 43.2925L60.4759 57.1387H41.3811ZM66.6448 57.1387L58.8468 51.5951L66.0742 46.7768L74.0141 52.07L68.9117 57.1387H66.6448ZM87.6387 60.7129C86.6533 60.7129 85.8516 59.9112 85.8516 58.9258C85.8516 57.654 86.7176 54.8375 87.6387 53.738C88.569 54.8484 89.4258 57.68 89.4258 58.9258C89.4258 59.9112 88.6241 60.7129 87.6387 60.7129ZM89.4258 50.5589C88.8705 50.1807 88.274 49.9902 87.6387 49.9902C84.6847 49.9902 83.0379 54.3085 82.4808 57.1387H73.9832L87.6345 43.5778L89.4258 45.3691V50.5589Z" fill="#373737"/>
<path d="M62.5 75.0098H58.9258C57.9388 75.0098 57.1387 75.8099 57.1387 76.7969C57.1387 77.7838 57.9388 78.584 58.9258 78.584H62.5C63.487 78.584 64.2871 77.7838 64.2871 76.7969C64.2871 75.8099 63.487 75.0098 62.5 75.0098Z" fill="#373737"/>
<path d="M84.0645 78.584H80.3711C79.3841 78.584 78.584 79.3841 78.584 80.3711C78.584 81.3581 79.3841 82.1582 80.3711 82.1582H84.0645C85.0514 82.1582 85.8516 81.3581 85.8516 80.3711C85.8516 79.3841 85.0514 78.584 84.0645 78.584Z" fill="#373737"/>
<path d="M73.2227 82.1582H66.0742C65.0873 82.1582 64.2871 82.9584 64.2871 83.9453C64.2871 84.9323 65.0873 85.7324 66.0742 85.7324H73.2227C74.2096 85.7324 75.0098 84.9323 75.0098 83.9453C75.0098 82.9584 74.2096 82.1582 73.2227 82.1582Z" fill="#373737"/>
<path d="M76.7969 71.4355H69.6484C68.6615 71.4355 67.8613 72.2357 67.8613 73.2227C67.8613 74.2096 68.6615 75.0098 69.6484 75.0098H76.7969C77.7838 75.0098 78.584 74.2096 78.584 73.2227C78.584 72.2357 77.7838 71.4355 76.7969 71.4355Z" fill="#373737"/>
<path d="M58.9258 82.1582H51.7773C50.7904 82.1582 49.9902 82.9584 49.9902 83.9453C49.9902 84.9323 50.7904 85.7324 51.7773 85.7324H58.9258C59.9127 85.7324 60.7129 84.9323 60.7129 83.9453C60.7129 82.9584 59.9127 82.1582 58.9258 82.1582Z" fill="#373737"/>
</svg>

<svg width="126" height="126" fill="none" xmlns="http://www.w3.org/2000/svg"><circle cx="63" cy="63" r="61.5" stroke="#E2704C" stroke-width="3"/><path d="M85.191 68.162c-4.674-2.499-10.828-3.875-17.33-3.875-6.496 0-12.631 1.377-17.275 3.878-4.994 2.689-7.744 6.39-7.744 10.419 0 .073 0 .147.002.215C37.621 79.458 32 81.91 32 85.732c0 2.191 1.703 4.14 4.797 5.49C39.427 92.367 42.843 93 46.416 93c.651 0 1.306-.02 1.946-.06 5.725-.361 11.313-.372 16.608-.032.953.061 1.926.092 2.891.092 6.492 0 12.65-1.4 17.339-3.94 5.03-2.724 7.8-6.445 7.8-10.476 0-4.028-2.773-7.73-7.809-10.422zm-1.694 17.756c-4.175 2.262-9.728 3.508-15.636 3.508-.89 0-1.785-.029-2.662-.085-5.445-.35-11.186-.339-17.062.031-.565.036-1.144.054-1.721.054-6.62 0-10.842-2.425-10.842-3.694 0-.582 2.322-2.706 7.718-3.387a3.563 3.563 0 003.126-3.635 4.383 4.383 0 01-.002-.126c0-5.812 9.82-10.723 21.445-10.723 5.924 0 11.48 1.227 15.645 3.453 3.762 2.012 5.92 4.661 5.92 7.27 0 2.62-2.161 5.293-5.928 7.334z" fill="#373737"/><path d="M92.477 43.365l-3.575-3.574a1.792 1.792 0 00-2.52-.007l-9.806 9.698-1.697-1.131c.086-.64.13-1.287.13-1.935C75.01 38.467 68.597 32 60.714 32c-6.844 0-12.419 4.858-13.9 11.04l-4.842-3.442a1.787 1.787 0 00-2.152.061l-7.148 5.719a1.786 1.786 0 00-.671 1.395v12.153c0 .404.136.775.362 1.075-.229.928-.362 1.812-.362 2.499a5.37 5.37 0 003.574 5.054v5.669a1.787 1.787 0 003.574 0v-5.67a5.37 5.37 0 003.575-5.053c0-.508-.073-1.125-.204-1.787h40.066a5.387 5.387 0 003.267 3.267v2.094a1.787 1.787 0 103.574 0V63.98A5.37 5.37 0 0093 58.926V44.629c0-.474-.188-.929-.523-1.264zm-31.764-7.79c5.791 0 10.524 4.666 10.716 10.476l-4.364-2.91c-.6-.4-1.382-.4-1.982 0l-9.355 6.237-5.684-4.04c.544-5.458 5.16-9.764 10.669-9.764zM37.36 64.286a1.79 1.79 0 01-1.787-1.787c0-1.272.866-4.088 1.787-5.188.93 1.11 1.787 3.942 1.787 5.188a1.79 1.79 0 01-1.787 1.787zm4.02-7.148c-1.07-2.372-2.422-3.575-4.02-3.575a3.12 3.12 0 00-1.787.57v-6.502L41 43.292 60.476 57.14H41.38zm25.264 0l-7.798-5.544 7.227-4.818 7.94 5.293-5.102 5.069h-2.267zm20.994 3.574a1.79 1.79 0 01-1.787-1.787c0-1.272.866-4.089 1.787-5.188.93 1.11 1.787 3.942 1.787 5.188a1.79 1.79 0 01-1.787 1.787zm1.787-10.154a3.12 3.12 0 00-1.787-.569c-2.954 0-4.601 4.319-5.158 7.149h-8.498l13.651-13.561 1.792 1.791v5.19zM62.5 75.01h-3.574a1.787 1.787 0 100 3.574H62.5a1.787 1.787 0 000-3.574zm21.564 3.574h-3.693a1.787 1.787 0 100 3.574h3.694a1.787 1.787 0 000-3.574zm-10.841 3.574h-7.149a1.787 1.787 0 000 3.574h7.149a1.787 1.787 0 000-3.574zm3.574-10.722h-7.149a1.787 1.787 0 000 3.574h7.149a1.787 1.787 0 000-3.575zM58.926 82.158h-7.149a1.787 1.787 0 000 3.574h7.149a1.787 1.787 0 000-3.574z" fill="#373737"/></svg>
